src/images/explorer-logo-light.svg

<?xml version="1.0" encoding="UTF-8"?>
<!DOCTYPE svg  PUBLIC '-//W3C//DTD SVG 1.1//EN'  'http://www.w3.org/Graphics/SVG/1.1/DTD/svg11.dtd'>
<svg clip-rule="evenodd" fill-rule="evenodd" stroke-linejoin="round" stroke-miterlimit="2" version="1.1" viewBox="0 0 208 92" xml:space="preserve" xmlns="http://www.w3.org/2000/svg" xmlns:xlink="http://www.w3.org/1999/xlink">
    <g transform="translate(-8726.4 -6254.4)">
        <g transform="translate(0 140.8)">
            <g transform="translate(0 -5.4196)">
                <g transform="matrix(.79858 0 0 .79858 8813.6 6159.4)">
                    <clipPath id="a">
                        <path d="m2.389 37.209v-24.224h15.756v3.678h-11.367v6.577h10.551v3.679h-10.551v6.612h11.462v3.678h-15.851zm23.551-18.168 3.667 6.707 3.726-6.707h4.53l-5.477 9.084 5.572 9.084h-4.507l-3.844-6.541-3.809 6.541h-4.542l5.536-9.084-5.394-9.084h4.542zm15.235 24.982v-24.982h4.211v3.004h0.248c0.221-0.441 0.533-0.913 0.935-1.413 0.402-0.501 0.946-0.931 1.632-1.29 0.686-0.358 1.562-0.538 2.626-0.538 1.404 0 2.671 0.357 3.803 1.071 1.132 0.713 2.031 1.766 2.697 3.158s0.999 3.097 0.999 5.116c0 1.995-0.327 3.69-0.981 5.086-0.655 1.396-1.546 2.46-2.674 3.194-1.127 0.733-2.405 1.1-3.832 1.1-1.041 0-1.904-0.174-2.59-0.521-0.687-0.347-1.237-0.767-1.651-1.259-0.414-0.493-0.735-0.961-0.964-1.402h-0.177v9.676h-4.282zm4.199-15.898c0 1.175 0.168 2.204 0.503 3.087 0.335 0.884 0.82 1.572 1.455 2.064 0.635 0.493 1.405 0.74 2.312 0.74 0.947 0 1.739-0.255 2.378-0.763 0.639-0.509 1.122-1.207 1.449-2.094s0.491-1.898 0.491-3.034c0-1.128-0.162-2.129-0.485-3.004-0.324-0.876-0.805-1.562-1.443-2.059-0.639-0.496-1.436-0.745-2.39-0.745-0.914 0-1.691 0.241-2.33 0.722s-1.122 1.155-1.449 2.022c-0.327 0.868-0.491 1.889-0.491 3.064zm20.889-15.14v24.224h-4.282v-24.224h4.282zm12.326 24.579c-1.775 0-3.312-0.39-4.613-1.171-1.302-0.78-2.309-1.873-3.023-3.276-0.713-1.404-1.07-3.044-1.07-4.921s0.357-3.521 1.07-4.932c0.714-1.412 1.721-2.508 3.023-3.289 1.301-0.78 2.838-1.171 4.613-1.171 1.774 0 3.312 0.391 4.613 1.171 1.301 0.781 2.308 1.877 3.022 3.289 0.714 1.411 1.07 3.055 1.07 4.932s-0.356 3.517-1.07 4.921c-0.714 1.403-1.721 2.496-3.022 3.276-1.301 0.781-2.839 1.171-4.613 1.171zm0.023-3.43c0.962 0 1.767-0.266 2.413-0.798 0.647-0.533 1.13-1.248 1.449-2.147 0.32-0.899 0.479-1.901 0.479-3.005 0-1.112-0.159-2.119-0.479-3.022-0.319-0.903-0.802-1.622-1.449-2.159-0.646-0.536-1.451-0.804-2.413-0.804-0.985 0-1.803 0.268-2.454 0.804-0.651 0.537-1.136 1.256-1.455 2.159s-0.479 1.91-0.479 3.022c0 1.104 0.16 2.106 0.479 3.005s0.804 1.614 1.455 2.147c0.651 0.532 1.469 0.798 2.454 0.798zm12.302 3.075v-18.168h4.152v3.028h0.189c0.331-1.049 0.901-1.859 1.709-2.431 0.809-0.572 1.733-0.857 2.774-0.857 0.237 0 0.503 9e-3 0.799 0.029 0.295 0.02 0.542 0.049 0.739 0.089v3.939c-0.182-0.063-0.467-0.121-0.858-0.172-0.39-0.051-0.767-0.077-1.129-0.077-0.781 0-1.481 0.168-2.1 0.503s-1.106 0.798-1.461 1.39c-0.355 0.591-0.532 1.273-0.532 2.046v10.681h-4.282zm20.499 0.355c-1.822 0-3.393-0.38-4.714-1.141s-2.336-1.842-3.046-3.241c-0.709-1.4-1.064-3.05-1.064-4.95 0-1.869 0.357-3.512 1.07-4.927 0.714-1.416 1.713-2.52 2.999-3.312 1.285-0.793 2.795-1.189 4.53-1.189 1.12 0 2.179 0.18 3.176 0.538 0.998 0.359 1.881 0.913 2.65 1.662s1.374 1.702 1.815 2.857c0.442 1.155 0.663 2.529 0.663 4.122v1.313h-14.892v-2.886h10.787c-8e-3 -0.82-0.185-1.552-0.532-2.194-0.347-0.643-0.83-1.15-1.449-1.52-0.619-0.371-1.339-0.556-2.159-0.556-0.875 0-1.644 0.211-2.306 0.633-0.663 0.422-1.177 0.974-1.544 1.656s-0.554 1.429-0.562 2.241v2.52c0 1.056 0.193 1.961 0.58 2.714 0.386 0.753 0.926 1.329 1.62 1.727s1.506 0.598 2.437 0.598c0.623 0 1.187-0.089 1.691-0.267 0.505-0.177 0.943-0.439 1.313-0.786 0.371-0.347 0.651-0.777 0.84-1.289l3.998 0.449c-0.252 1.057-0.731 1.977-1.437 2.762s-1.607 1.392-2.703 1.822c-1.096 0.429-2.35 0.644-3.761 0.644zm11.698-0.355v-18.168h4.152v3.028h0.189c0.332-1.049 0.901-1.859 1.71-2.431 0.808-0.572 1.732-0.857 2.773-0.857 0.237 0 0.503 9e-3 0.799 0.029 0.295 0.02 0.542 0.049 0.739 0.089v3.939c-0.181-0.063-0.467-0.121-0.858-0.172-0.39-0.051-0.766-0.077-1.129-0.077-0.781 0-1.481 0.168-2.1 0.503s-1.106 0.798-1.461 1.39c-0.354 0.591-0.532 1.273-0.532 2.046v10.681h-4.282z" clip-rule="nonzero"/>
                    </clipPath>
                    <g clip-path="url(#a)">
                        <g transform="matrix(1.2522 -0 -0 1.2522 -109.33 -50.567)">
                            <use transform="scale(.99696 .99146)" x="89.487" y="51.189" width="104.681px" height="24.786px" xlink:href="#c"/>
                        </g>
                    </g>
                </g>
                <g transform="matrix(.59005 0 0 .59005 8574.7 6107.9)">
                    <text x="404.998px" y="79.542px" fill="rgb(40,41,41)" font-family="'Inter-SemiBold', 'Inter', sans-serif" font-size="45px" font-weight="600">Alephium</text>
                </g>
            </g>
            <g transform="matrix(1.2364 0 0 1.2368 8302.6 6067.4)">
                <g transform="matrix(.22277 -.039275 -1.7534e-34 .21881 -4771.2 36.592)">
                    <path d="m23021 4359c0-4.38-3.4-7.94-7.6-7.94h-50.2c-4.2 0-7.6 3.56-7.6 7.94v96.65c0 4.39 3.4 7.95 7.6 7.95h50.2c4.2 0 7.6-3.56 7.6-7.95v-96.65z" fill="#0e0f0f" fill-opacity=".95"/>
                </g>
                <g transform="matrix(.22277 -.039275 -1.7534e-34 .21881 -4742.1 -10.762)">
                    <path d="m23021 4359c0-4.38-3.4-7.94-7.6-7.94h-50.2c-4.2 0-7.6 3.56-7.6 7.94v96.65c0 4.39 3.4 7.95 7.6 7.95h50.2c4.2 0 7.6-3.56 7.6-7.95v-96.65z" fill="url(#b)"/>
                </g>
                <g transform="matrix(.23868 -.04208 .24967 .54989 -6222.8 -1381.8)">
                    <path d="m23021 4354.2c0-1.73-3.4-3.13-7.6-3.13h-50.2c-4.2 0-7.6 1.4-7.6 3.13v106.27c0 1.73 3.4 3.14 7.6 3.14h50.2c4.2 0 7.6-1.41 7.6-3.14v-106.27z" fill="#0e0f0f" fill-opacity=".95"/>
                </g>
            </g>
        </g>
    </g>
    <defs>
        <image id="c" width="105px" height="25px" xlink:href="data:image/jpeg;base64,/9j/4AAQSkZJRgABAQEAYABgAAD/2wBDAAUDBAQEAwUEBAQFBQUGBwwIBwcHBw8LCwkMEQ8SEhEPERETFhwXExQaFRERGCEYGh0dHx8fExciJCIeJBweHx7/2wBDAQUFBQcGBw4ICA4eFBEUHh4eHh4eHh4eHh4eHh4eHh4eHh4eHh4eHh4eHh4eHh4eHh4eHh4eHh4eHh4eHh4eHh7/wAARCAAZAGkDAREAAhEBAxEB/8QAGAABAQEBAQAAAAAAAAAAAAAAAgYBAAP/xAAaEAADAQEBAQAAAAAAAAAAAAAAAWEEAhQx/8QAGgEBAQADAQEAAAAAAAAAAAAAAwIBBgcIAP/EABsRAAIDAQEBAAAAAAAAAAAAAAABAgVhAxMV/9oADAMBAAIRAxEAPwCNeeG1xsdOnviB54PGx0l8QvPB42OkPiB54PGx0l8QPNB42OkviB5oPGx0h8QvNB42OkviB54PGx0h8QPPB42OkviB54PGx0h8QvPB42OkviB54PGx0h8QPPB42OkviHzQT6OmPEunnh5qjY6bm+IXng8bHSXxA88HjY6S+IHng8bHSHxC88HjY6T4geeDxsdIfEDzweNjpL4geeDxsdIfELzweNjpL4geeDxsdIfEDzweNjpL4heeDxsdJfEDzweNjpD4h80E+lpjxLp54eao2Om5viB54PGx0l8QvPB42OkPiB54PGx0l8QPPB42OkviF5oPGx0h8QPPB42OkviB54PGx0h8QPPB42OkviF54PGx0l8QPPB42OkPiB54PGx0l8QPNB42OkPiZ54J9HTHiVpww2g5/DKPmDoaJLAx4kMPQ8SGBjxJYGPEhg6HiSwjolgY8SGBjxJCx4kM82PElmCkn//Z"/>
        <linearGradient id="b" x2="1" gradientTransform="matrix(35.435 -84.688 89.457 52.123 22969 4452.8)" gradientUnits="userSpaceOnUse"><stop stop-color="#f76110" offset="0"/><stop stop-color="#6510f7" offset="1"/></linearGradient>
    </defs>
</svg>

<?xml version="1.0" encoding="UTF-8" standalone="no"?>
<!DOCTYPE svg PUBLIC "-//W3C//DTD SVG 1.1//EN" "http://www.w3.org/Graphics/SVG/1.1/DTD/svg11.dtd">
<svg width="100%" height="100%" viewBox="0 0 208 92" version="1.1" xmlns="http://www.w3.org/2000/svg" xmlns:xlink="http://www.w3.org/1999/xlink" xml:space="preserve" xmlns:serif="http://www.serif.com/" style="fill-rule:evenodd;clip-rule:evenodd;stroke-linejoin:round;stroke-miterlimit:2;">
    <g transform="matrix(1,0,0,1,-8726.35,-6254.4)">
        <g transform="matrix(1,0,0,1,0,140.797)">
            <g transform="matrix(1,0,0,1,0,-5.41958)">
                <g transform="matrix(0.79858,0,0,0.79858,8813.65,6159.4)">
                    <clipPath id="_clip1">
                        <path d="M2.389,37.209L2.389,12.985L18.145,12.985L18.145,16.663L6.778,16.663L6.778,23.24L17.329,23.24L17.329,26.919L6.778,26.919L6.778,33.531L18.24,33.531L18.24,37.209L2.389,37.209ZM25.94,19.041L29.607,25.748L33.333,19.041L37.863,19.041L32.386,28.125L37.958,37.209L33.451,37.209L29.607,30.668L25.798,37.209L21.256,37.209L26.792,28.125L21.398,19.041L25.94,19.041ZM41.175,44.023L41.175,19.041L45.386,19.041L45.386,22.045L45.634,22.045C45.855,21.604 46.167,21.132 46.569,20.632C46.971,20.131 47.515,19.701 48.201,19.342C48.887,18.984 49.763,18.804 50.827,18.804C52.231,18.804 53.498,19.161 54.63,19.875C55.762,20.588 56.661,21.641 57.327,23.033C57.993,24.425 58.326,26.13 58.326,28.149C58.326,30.144 57.999,31.839 57.345,33.235C56.69,34.631 55.799,35.695 54.671,36.429C53.544,37.162 52.266,37.529 50.839,37.529C49.798,37.529 48.935,37.355 48.249,37.008C47.562,36.661 47.012,36.241 46.598,35.749C46.184,35.256 45.863,34.788 45.634,34.347L45.457,34.347L45.457,44.023L41.175,44.023ZM45.374,28.125C45.374,29.3 45.542,30.329 45.877,31.212C46.212,32.096 46.697,32.784 47.332,33.276C47.967,33.769 48.737,34.016 49.644,34.016C50.591,34.016 51.383,33.761 52.022,33.253C52.661,32.744 53.144,32.046 53.471,31.159C53.798,30.272 53.962,29.261 53.962,28.125C53.962,26.997 53.8,25.996 53.477,25.121C53.153,24.245 52.672,23.559 52.034,23.062C51.395,22.566 50.598,22.317 49.644,22.317C48.73,22.317 47.953,22.558 47.314,23.039C46.675,23.52 46.192,24.194 45.865,25.061C45.538,25.929 45.374,26.95 45.374,28.125ZM66.263,12.985L66.263,37.209L61.981,37.209L61.981,12.985L66.263,12.985ZM78.589,37.564C76.814,37.564 75.277,37.174 73.976,36.393C72.674,35.613 71.667,34.52 70.953,33.117C70.24,31.713 69.883,30.073 69.883,28.196C69.883,26.319 70.24,24.675 70.953,23.264C71.667,21.852 72.674,20.756 73.976,19.975C75.277,19.195 76.814,18.804 78.589,18.804C80.363,18.804 81.901,19.195 83.202,19.975C84.503,20.756 85.51,21.852 86.224,23.264C86.938,24.675 87.294,26.319 87.294,28.196C87.294,30.073 86.938,31.713 86.224,33.117C85.51,34.52 84.503,35.613 83.202,36.393C81.901,37.174 80.363,37.564 78.589,37.564ZM78.612,34.134C79.574,34.134 80.379,33.868 81.025,33.336C81.672,32.803 82.155,32.088 82.474,31.189C82.794,30.29 82.953,29.288 82.953,28.184C82.953,27.072 82.794,26.065 82.474,25.162C82.155,24.259 81.672,23.54 81.025,23.003C80.379,22.467 79.574,22.199 78.612,22.199C77.627,22.199 76.809,22.467 76.158,23.003C75.507,23.54 75.022,24.259 74.703,25.162C74.384,26.065 74.224,27.072 74.224,28.184C74.224,29.288 74.384,30.29 74.703,31.189C75.022,32.088 75.507,32.803 76.158,33.336C76.809,33.868 77.627,34.134 78.612,34.134ZM90.914,37.209L90.914,19.041L95.066,19.041L95.066,22.069L95.255,22.069C95.586,21.02 96.156,20.21 96.964,19.638C97.773,19.066 98.697,18.781 99.738,18.781C99.975,18.781 100.241,18.79 100.537,18.81C100.832,18.83 101.079,18.859 101.276,18.899L101.276,22.838C101.094,22.775 100.809,22.717 100.418,22.666C100.028,22.615 99.651,22.589 99.289,22.589C98.508,22.589 97.808,22.757 97.189,23.092C96.57,23.427 96.083,23.89 95.728,24.482C95.373,25.073 95.196,25.755 95.196,26.528L95.196,37.209L90.914,37.209ZM111.413,37.564C109.591,37.564 108.02,37.184 106.699,36.423C105.378,35.662 104.363,34.581 103.653,33.182C102.944,31.782 102.589,30.132 102.589,28.232C102.589,26.363 102.946,24.72 103.659,23.305C104.373,21.889 105.372,20.785 106.658,19.993C107.943,19.2 109.453,18.804 111.188,18.804C112.308,18.804 113.367,18.984 114.364,19.342C115.362,19.701 116.245,20.255 117.014,21.004C117.783,21.753 118.388,22.706 118.829,23.861C119.271,25.016 119.492,26.39 119.492,27.983L119.492,29.296L104.6,29.296L104.6,26.41L115.387,26.41C115.379,25.59 115.202,24.858 114.855,24.216C114.508,23.573 114.025,23.066 113.406,22.696C112.787,22.325 112.067,22.14 111.247,22.14C110.372,22.14 109.603,22.351 108.941,22.773C108.278,23.195 107.764,23.747 107.397,24.429C107.03,25.111 106.843,25.858 106.835,26.67L106.835,29.19C106.835,30.246 107.028,31.151 107.415,31.904C107.801,32.657 108.341,33.233 109.035,33.631C109.729,34.029 110.541,34.229 111.472,34.229C112.095,34.229 112.659,34.14 113.163,33.962C113.668,33.785 114.106,33.523 114.476,33.176C114.847,32.829 115.127,32.399 115.316,31.887L119.314,32.336C119.062,33.393 118.583,34.313 117.877,35.098C117.171,35.883 116.27,36.49 115.174,36.92C114.078,37.349 112.824,37.564 111.413,37.564ZM123.111,37.209L123.111,19.041L127.263,19.041L127.263,22.069L127.452,22.069C127.784,21.02 128.353,20.21 129.162,19.638C129.97,19.066 130.894,18.781 131.935,18.781C132.172,18.781 132.438,18.79 132.734,18.81C133.029,18.83 133.276,18.859 133.473,18.899L133.473,22.838C133.292,22.775 133.006,22.717 132.615,22.666C132.225,22.615 131.849,22.589 131.486,22.589C130.705,22.589 130.005,22.757 129.386,23.092C128.767,23.427 128.28,23.89 127.925,24.482C127.571,25.073 127.393,25.755 127.393,26.528L127.393,37.209L123.111,37.209Z" clip-rule="nonzero"/>
                    </clipPath>
                    <g clip-path="url(#_clip1)">
                        <g transform="matrix(1.25222,-0,-0,1.25222,-109.328,-50.5671)">
                            <use xlink:href="#_Image2" x="89.487" y="51.189" width="104.681px" height="24.786px" transform="matrix(0.99696,0,0,0.991455,0,0)"/>
                        </g>
                    </g>
                </g>
                <g transform="matrix(0.590051,0,0,0.590051,8574.68,6107.89)">
                    <text x="404.998px" y="79.542px" style="font-family:'Inter-SemiBold', 'Inter', sans-serif;font-weight:600;font-size:45px;fill:rgb(40,41,41);">Alephium</text>
                </g>
            </g>
            <g transform="matrix(1.23639,0,0,1.23679,8302.62,6067.37)">
                <g transform="matrix(0.222772,-0.0392749,-1.7534e-34,0.218806,-4771.22,36.5915)">
                    <path d="M23021.3,4358.98C23021.3,4354.6 23017.9,4351.04 23013.7,4351.04L22963.5,4351.04C22959.3,4351.04 22955.9,4354.6 22955.9,4358.98L22955.9,4455.63C22955.9,4460.02 22959.3,4463.58 22963.5,4463.58L23013.7,4463.58C23017.9,4463.58 23021.3,4460.02 23021.3,4455.63L23021.3,4358.98Z" style="fill:rgb(14,15,15);fill-opacity:0.95;"/>
                </g>
                <g transform="matrix(0.222772,-0.0392749,-1.7534e-34,0.218806,-4742.08,-10.7618)">
                    <path d="M23021.3,4358.98C23021.3,4354.6 23017.9,4351.04 23013.7,4351.04L22963.5,4351.04C22959.3,4351.04 22955.9,4354.6 22955.9,4358.98L22955.9,4455.63C22955.9,4460.02 22959.3,4463.58 22963.5,4463.58L23013.7,4463.58C23017.9,4463.58 23021.3,4460.02 23021.3,4455.63L23021.3,4358.98Z" style="fill:url(#_Linear3);"/>
                </g>
                <g transform="matrix(0.238684,-0.0420803,0.249669,0.549886,-6222.82,-1381.76)">
                    <path d="M23021.3,4354.17C23021.3,4352.44 23017.9,4351.04 23013.7,4351.04L22963.5,4351.04C22959.3,4351.04 22955.9,4352.44 22955.9,4354.17L22955.9,4460.44C22955.9,4462.17 22959.3,4463.58 22963.5,4463.58L23013.7,4463.58C23017.9,4463.58 23021.3,4462.17 23021.3,4460.44L23021.3,4354.17Z" style="fill:rgb(14,15,15);fill-opacity:0.95;"/>
                </g>
            </g>
        </g>
    </g>
    <defs>
        <image id="_Image2" width="105px" height="25px" xlink:href="data:image/jpeg;base64,/9j/4AAQSkZJRgABAQEAYABgAAD/2wBDAAUDBAQEAwUEBAQFBQUGBwwIBwcHBw8LCwkMEQ8SEhEPERETFhwXExQaFRERGCEYGh0dHx8fExciJCIeJBweHx7/2wBDAQUFBQcGBw4ICA4eFBEUHh4eHh4eHh4eHh4eHh4eHh4eHh4eHh4eHh4eHh4eHh4eHh4eHh4eHh4eHh4eHh4eHh7/wAARCAAZAGkDAREAAhEBAxEB/8QAGAABAQEBAQAAAAAAAAAAAAAAAgYBAAP/xAAaEAADAQEBAQAAAAAAAAAAAAAAAWEEAhQx/8QAGgEBAQADAQEAAAAAAAAAAAAAAwIBBgcIAP/EABsRAAIDAQEBAAAAAAAAAAAAAAABAgVhAxMV/9oADAMBAAIRAxEAPwCNeeG1xsdOnviB54PGx0l8QvPB42OkPiB54PGx0l8QPNB42OkviB5oPGx0h8QvNB42OkviB54PGx0h8QPPB42OkviB54PGx0h8QvPB42OkviB54PGx0h8QPPB42OkviHzQT6OmPEunnh5qjY6bm+IXng8bHSXxA88HjY6S+IHng8bHSHxC88HjY6T4geeDxsdIfEDzweNjpL4geeDxsdIfELzweNjpL4geeDxsdIfEDzweNjpL4heeDxsdJfEDzweNjpD4h80E+lpjxLp54eao2Om5viB54PGx0l8QvPB42OkPiB54PGx0l8QPPB42OkviF5oPGx0h8QPPB42OkviB54PGx0h8QPPB42OkviF54PGx0l8QPPB42OkPiB54PGx0l8QPNB42OkPiZ54J9HTHiVpww2g5/DKPmDoaJLAx4kMPQ8SGBjxJYGPEhg6HiSwjolgY8SGBjxJCx4kM82PElmCkn//Z"/>
        <linearGradient id="_Linear3" x1="0" y1="0" x2="1" y2="0" gradientUnits="userSpaceOnUse" gradientTransform="matrix(35.4352,-84.6878,89.4568,52.1228,22969.4,4452.84)"><stop offset="0" style="stop-color:rgb(247,97,16);stop-opacity:1"/><stop offset="1" style="stop-color:rgb(101,16,247);stop-opacity:1"/></linearGradient>
    </defs>
</svg>
